packages/picasso/src/Icon/svg/partTime24.svg

<?xml version="1.0" encoding="UTF-8"?>
<svg width="24px" height="24px" viewBox="0 0 24 24" version="1.1" xmlns="http://www.w3.org/2000/svg" xmlns:xlink="http://www.w3.org/1999/xlink">
    <!-- Generator: sketchtool 63.1 (101010) - https://sketch.com -->
    <title>d0948f3b-cee1-4e58-8482-4a30a9354cd5@1.00x</title>
    <desc>Created with sketchtool.</desc>
    <defs>
        <path d="M11.5,1 C17.2989899,1 22,5.70101013 22,11.5 C22,11.6678815 21.99606,11.8348427 21.9882675,12.0007963 L20.9870543,12.0002622 C20.9956492,11.8345954 21,11.6678058 21,11.5 C21,6.25329488 16.7467051,2 11.5,2 C6.25329488,2 2,6.25329488 2,11.5 C2,16.7467051 6.25329488,21 11.5,21 C11.6678058,21 11.8345954,20.9956492 12.0002622,20.9870543 L12.0007963,21.9882675 C11.8348427,21.99606 11.6678815,22 11.5,22 C5.70101013,22 1,17.2989899 1,11.5 C1,5.70101013 5.70101013,1 11.5,1 Z M17.868,14.261 C19.177,14.261 19.737,15.493 19.737,16.669 C19.737,17.845 19.177,19.084 17.868,19.084 C16.559,19.084 15.999,17.845 15.999,16.669 C15.999,15.493 16.559,14.261 17.868,14.261 Z M13.556,14.261 C14.459,14.261 15.25,14.772 15.25,15.703 C15.25,16.4627059 14.6341696,17.151564 13.6285162,17.9523039 L13.6285162,17.9523039 L13.206,18.279 L15.278,18.279 L15.278,19 L11.897,19 L11.897,18.356 C13.71,16.984 14.417,16.375 14.417,15.703 C14.417,15.213 13.997,14.989 13.57,14.989 C13.024,14.989 12.604,15.213 12.31,15.549 L12.31,15.549 L11.834,15.01 C12.247,14.513 12.905,14.261 13.556,14.261 Z M21.235,14.331 L21.235,16.081 C21.459,15.815 21.9,15.535 22.432,15.535 C23.16,15.535 23.524,15.913 23.524,16.606 L23.524,19 L22.789,19 L22.789,16.872 C22.789,16.347 22.516,16.186 22.103,16.186 C21.732,16.186 21.41,16.41 21.235,16.641 L21.235,19 L20.5,19 L20.5,14.331 L21.235,14.331 Z M17.868,14.989 C17.105,14.989 16.832,15.78 16.832,16.669 C16.832,17.558 17.105,18.356 17.868,18.356 C18.631,18.356 18.904,17.558 18.904,16.669 C18.904,15.78 18.631,14.989 17.868,14.989 Z M12,4 L12,12 L6,12 L6,11 L11,11 L11,4 L12,4 Z" id="path-1"></path>
    </defs>
    <g id="Symbols" stroke="none" stroke-width="1" fill="none" fill-rule="evenodd">
        <g id="Icons-/-Date-and-Time-/-24-/-Availability-Part-Time">
            <mask id="mask-2" fill="white">
                <use xlink:href="#path-1"></use>
            </mask>
            <use id="Combined-Shape" fill-rule="nonzero" xlink:href="#path-1"></use>
            <g id="Colors-/-305-Dark-Gray" mask="url(#mask-2)">
                <rect id="Rectangle" x="0" y="0" width="24" height="24"></rect>
            </g>
        </g>
    </g>
</svg>

<svg fill="none" xmlns="http://www.w3.org/2000/svg" viewBox="0 0 24 24">
  <path fill-rule="evenodd" clip-rule="evenodd" d="M22 11.5c0 .1676-.0039.3343-.0117.5h-1.0012c.0086-.1656.0129-.3323.0129-.5C21 6.25329 16.7467 2 11.5 2 6.25329 2 2 6.25329 2 11.5c0 5.2467 4.25329 9.5 9.5 9.5.1677 0 .3344-.0043.5-.0129v1.0012c-.1657.0078-.3324.0117-.5.0117C5.70101 22 1 17.299 1 11.5 1 5.70101 5.70101 1 11.5 1 17.299 1 22 5.70101 22 11.5ZM12 11v1H6v-1h5V4h1v7Zm3.278 8v-.721h-2.072l.4225-.3267c1.0057-.8007 1.6215-1.4896 1.6215-2.2493 0-.931-.791-1.442-1.694-1.442-.651 0-1.309.252-1.722.749l.476.539c.294-.336.714-.56 1.26-.56.427 0 .847.224.847.714 0 .672-.707 1.281-2.52 2.653V19h3.381Zm2.59.084c1.309 0 1.869-1.239 1.869-2.415s-.56-2.408-1.869-2.408-1.869 1.232-1.869 2.408.56 2.415 1.869 2.415Zm-1.036-2.415c0 .889.273 1.687 1.036 1.687s1.036-.798 1.036-1.687-.273-1.68-1.036-1.68-1.036.791-1.036 1.68ZM23.524 19h-.735v-2.128c0-.525-.273-.686-.686-.686-.371 0-.693.224-.868.455V19H20.5v-4.669h.735v1.75c.224-.266.665-.546 1.197-.546.728 0 1.092.378 1.092 1.071V19Z" fill="#455065"/>
</svg>
